!!!!SEGMENT: pl-sa--498-a-viii-138--001-001_anonim--eia-gentes-eia-gentes.krn
!!!cenid: 17xx:1328
!!!COM: Anonim
!!!COM-rismID: pe30004985
!!!CDT:
!!!CNT:
!!!OPR: Eia gentes
!!!OTL: Eia gentes
!!!OMV: 001
!!!PDT:
!!!AGN:
!!!YEC: Copyright 2022 Narodowy Instytut Fryderyka Chopina (https://polishscores.org)
!!!YEM: License CC-BY-4.0 (https://creativecommons.org/licenses/by/4.0)
!!!SMS-siglum: PL-SA
!!!SMS-shelfmark: 498/A VIII 138
!!!SMS-shelfwork: 001-001 M
!!!SMS-variant:
!!!SMS-altvar:
!!!NIFC-rismSourceID: 1001069393
!!!NIFC-rismChildID: 1001069393
!!!NIFC-islandoraID: none
!!!URL-pdf-islandora:
!!!URL-scan: https://bc.bdsandomierz.pl/dlibra/publication/1172/edition/1133/content @EN{Scan in the Sandomierz Diocese Digital Library} @PL{Skany w portalu Cyfrowa Biblioteka Diecezjalna w Sandomierzu}
!!!IIIF:
!!!ONB-nifc: UWAGA: części Eia gentes: 1. Eia gentes, 2. Recitativ, 3. Esto mihi, 4. Alleluja
!!!AIN: 1 organ 1 soprn 1 viola 2 violn
!!!key: D
**kern	**fba	**kern	**kern	**kern	**kern	**text
*part5	*	*part4	*part3	*part2	*part1	*
*staff5	*	*staff4	*staff3	*staff2	*staff1	*
*I"Organo.	*	*I"Alt Viola.	*I"Violino 2do.	*I"Violino 1mo.	*I"Canto Solo.	*
*I'org	*	*I'a-vla	*I'vl 2	*I'vl 1	*I'S solo	*
*Iorgan	*	*Iviola	*Ivioln	*Ivioln	*Isoprn	*
*ICklav	*	*ICstr	*ICstr	*ICstr	*ICvox	*
*IGcont	*	*IGacmp	*IGacmp	*IGacmp	*IGsolo	*
*>[A,B,A]	*	*>[A,B,A]	*>[A,B,A]	*>[A,B,A]	*>[A,B,A]	*>[A,B,A]
*>A	*	*>A	*>A	*>A	*>A	*>A
*clefF4	*	*clefG2	*clefG2	*clefG2	*clefC1	*
*k[f#c#]	*	*k[f#c#]	*k[f#c#]	*k[f#c#]	*k[f#c#]	*
*D:	*	*D:	*D:	*D:	*D:	*
*M2/2	*	*M2/2	*M2/2	*M2/2	*M2/2	*
*met(c|)	*	*met(c|)	*met(c|)	*met(c|)	*met(c|)	*
=1	=1	=1	=1	=1	=1	=1
*all\right	*	*all\right	*all\right	*all\right	*all\right	*
!LO:TX:t=P:problem=kolejność znaków FF# C# F#	!	!LO:TX:t=P:problem=kolejność znaków ff# cc# f#	!LO:TX:t=P:problem=kolejność znaków ff# cc# f#	!LO:TX:t=P:problem=kolejność znaków ff# cc# f#	!LO:TX:t=P:problem=kolejność znaków cc# f# c#	!
!	!	!	!	!	!LO:TX:a:t=14.	!
8D\L	.	8f#/L	4dd\	4dd\	00r	.
8E\	.	8g/	.	.	.	.
8F#\	.	8a/	4dd\	4dd\	.	.
8E\J	.	8g/J	.	.	.	.
4D/	.	4f#/	(16dd\LL	(16dd\LL	.	.
.	.	.	16ff#\)	16aa\)	.	.
.	.	.	(16ff#\	(16aa\	.	.
.	.	.	16ee\JJ)	16gg\JJ)	.	.
4r	.	4re	(16ee\LL	(16gg\LL	.	.
.	.	.	16dd\)	16ff#\)	.	.
.	.	.	(16dd\	(16ff#\	.	.
.	.	.	16cc#\JJ)	16ee\JJ)	.	.
=2	=2	=2	=2	=2	=2	=2
8D\L	.	8f#/L	4dd\	4ff#\	.	.
8E\	.	8g/	.	.	.	.
8F#\	.	8a/	4dd\	4ff#\	.	.
8E\J	.	8g/J	.	.	.	.
4D/	.	4f#/	(16dd\LL	(16ff#\LL	.	.
.	.	.	16ff#\)	16aa\)	.	.
.	.	.	(16ff#\	16aa\	.	.
.	.	.	16ee\JJ)	16gg\JJ	.	.
4r	.	4re	(16ee\LL	(16gg\LL	.	.
.	.	.	16dd\)	16ff#\)	.	.
.	.	.	(16dd\	(16ff#\	.	.
!	!	!	!	!LO:TX:a:t=Vi	!	!
.	.	.	16cc#\JJ)	16ee\JJ)	.	.
=3	=3	=3	=3	=3	=3	=3
4D/	.	4a/	16dd\LL	16ff#\LL	.	.
.	.	.	16ee\	16gg\	.	.
.	.	.	16ff#\	16aa\	.	.
.	.	.	16ee\JJ	16gg\JJ	.	.
8rGG	.	8rg	8dd\L	8ff#\L	.	.
!	!	!	!LO:SIC:v:o=8dd\J	!	!	!
8AA/	.	8a/	8cc#\J	8ee\J	.	.
!	!	!	!LO:TX:t=P:problem=mixed beam	!LO:TX:t=P:problem=mixed beam	!	!
4D/	.	4a/	16dd\LL	16ff#\LL	.	.
.	.	.	16d/	16d/	.	.
.	.	.	16e/	16e/	.	.
.	.	.	16d/JJ	16d/JJ	.	.
4r	.	4rg	16e/LL	16e/LL	.	.
.	.	.	16d/	16d/	.	.
.	.	.	16e/	16e/	.	.
!	!	!	!	!LO:TX:a:t=De	!	!
.	.	.	16d/JJ	16d/JJ	.	.
=4	=4	=4	=4	=4	=4	=4
4D/	.	4a/	(16dd\LL	(16ff#\LL	.	.
.	.	.	16ee\	16gg\	.	.
.	.	.	16ff#\	16aa\	.	.
.	.	.	16ee\JJ)	16gg\JJ)	.	.
8rGG	.	8rg	8dd\L	8ff#\L	.	.
8AA/	.	8a/	8cc#\J	8ee\J	.	.
4BB/	.	4f#/	4dd\	8dd\L	.	.
.	.	.	.	8cc#\	.	.
8rF	.	8rg	8rdd	8b\	.	.
8F#\	.	8a/	8dd\	8a\J	.	.
=5	=5	=5	=5	=5	=5	=5
!LO:TX:t=P:problem=mixed beam	!	!	!	!	!	!
8G\L	.	8b/L	8dd\	2g/	00r	.
8F#\	.	8a/	4dd\	.	.	.
8E\	.	8g/	.	.	.	.
*	*	*	*custos:dd	*	*	*
8AA/J	.	8a/J	8cc#\	.	.	.
!	!	!	!LO:LB:g=original	!	!	!
4D/	.	4a/	4dd\	4f#/	.	.
4r	.	4rg	4r	4rg	.	.
=6	=6	=6	=6	=6	=6	=6
4D/	.	4a/	16dd\LL	16ff#\LL	.	.
.	.	.	16ff#\	16aa\	.	.
.	.	.	16ee\	16gg\	.	.
.	.	.	16dd\JJ	16ff#\JJ	.	.
4r	.	4rg	16dd\LL	16ff#\LL	.	.
.	.	.	16ff#\	16aa\	.	.
.	.	.	16ee\	16gg\	.	.
*	*	*	*	*custos:A	*	*
.	.	.	16dd\JJ	16ff#\JJ	.	.
!	!	!	!	!LO:LB:g=original	!	!
8AA/L	.	8a/L	8A/L	8A/L	.	.
8AA/	.	8a/	8A/	8A/	.	.
8AA/	.	8a/	8A/	8A/	.	.
8AA/J	.	8a/J	8A/J	8A/J	.	.
=7	=7	=7	=7	=7	=7	=7
2rBB	.	2rg	(16cc#\LL	16ee\LL	.	.
.	.	.	16ee\	16gg\	.	.
.	.	.	16dd\	16ff#\	.	.
.	.	.	16cc#\JJ)	16ee\JJ	.	.
.	.	.	(16cc#\LL	16ee\LL	.	.
.	.	.	16ee\	16gg\	.	.
.	.	.	16dd\	16ff#\	.	.
.	.	.	16cc#\JJ)	16ee\JJ	.	.
8AA/L	.	8a/L	8A/L	8A/L	.	.
8AA/	.	8a/	8A/	8A/	.	.
8AA/	.	8a/	8A/	8A/	.	.
8AA/J	.	8a/J	8A/J	8A/J	.	.
!	!	!LO:LB:g=original	!	!	!	!
=8	=8	=8	=8	=8	=8	=8
2r	.	2rg	16dd\LL	16ff#\LL	.	.
.	.	.	16ff#\	16aa\	.	.
.	.	.	16ee\	16gg\	.	.
.	.	.	16dd\JJ	16ff#\JJ	.	.
.	.	.	16dd\LL	16ff#\LL	.	.
.	.	.	16ff#\	16aa\	.	.
.	.	.	16ee\	16gg\	.	.
.	.	.	16dd\JJ	16ff#\JJ	.	.
8G\L	.	8g/L	8dd\L	8bb\L	.	.
8rF	.	8rg	8rdd	8ddd\	.	.
8B\J	.	8g/J	8ddd\J	(8gg\	.	.
8rA	.	8rg	8rff	8ff#\J)	.	.
!LO:LB:g=original	!	!	!	!	!	!
=9	=9	=9	=9	=9	=9	=9
8c#\L	.	8g/L	8ddd\L	8ee\L	00r	.
8rA	.	8rg	8raa	8ccc#\	.	.
8A\J	.	8a/J	8ccc#\J	8ff#\	.	.
8rA	.	8rg	8raa	8ee\J	.	.
8B\L	.	8f#/L	8ccc#\L	8dd\L	.	.
8rA	.	8re	8raa	8bb\	.	.
8G\J	.	8g/J	8bb\J	8ee\	.	.
8rF	.	8rg	8raa	8dd\J	.	.
!	!	!	!LO:LB:g=original	!	!	!
=10	=10	=10	=10	=10	=10	=10
8A\L	.	8e/L	8bb\L	8cc#\L	.	.
8rF	.	8re	8rff	8aa\	.	.
8F#\J	.	8f#/J	8aa\J	8dd\	.	.
8rF	.	8re	8rff	8cc#\J	.	.
8G\L	.	8d/L	8aa\L	8b\L	.	.
8rF	.	8re	8rff	8gg\	.	.
8G\J	.	8b/J	8gg\J	8ee\	.	.
8rF	.	8r	8rff	8dd\J	.	.
=11	=11	=11	=11	=11	=11	=11
4A\	.	4e/	4gg\	4cc#\	.	.
*	*	*	*	*custos:dd	*	*
4rF	.	4re	4rdd	4r	.	.
!	!	!	!	!LO:LB:g=original	!	!
4D/	.	4d/	(16ff#\LL	16dd\LL	.	.
.	.	.	16aa\	16ff#\	.	.
.	.	.	16gg\	16ee\	.	.
.	.	.	16ff#\JJ)	16dd\JJ	.	.
4r	.	4re	(16ff#\LL	16dd\LL	.	.
.	.	.	16aa\	16ff#\	.	.
.	.	.	16gg\	16ee\	.	.
.	.	.	16ff#\JJ)	16dd\JJ	.	.
=12	=12	=12	=12	=12	=12	=12
4GG/	.	4d/	(16gg\LL	16bb\LL	.	.
.	.	.	16bb\	16ddd\	.	.
.	.	.	16aa\	16ccc#\	.	.
.	.	.	16gg\JJ)	16bb\JJ	.	.
4rGG	.	4re	(16gg\LL	16bb\LL	.	.
.	.	.	16bb\	16ddd\	.	.
.	.	.	16aa\	16ccc#\	.	.
.	.	.	16gg\JJ)	16bb\JJ	.	.
4D/	.	4d/	(16ff#\LL	(16dd\LL	.	.
.	.	.	16aa\	16ff#\	.	.
.	.	.	16gg\	16ee\	.	.
.	.	.	16ff#\JJ)	16dd\JJ)	.	.
4r	.	4re	(16ff#\LL	16dd\LL	.	.
.	.	.	16aa\	16ff#\	.	.
.	.	.	16gg\	16ee\	.	.
.	.	.	16ff#\JJ)	16dd\JJ	.	.
=13	=13	=13	=13	=13	=13	=13
4GG/	.	4d/	(16gg\LL	16bb\LL	0r	.
.	.	.	16bb\	16ddd\	.	.
.	.	.	16aa\	16ccc#\	.	.
.	.	.	16gg\JJ)	16bb\JJ	.	.
4rGG	.	4re	(16gg\LL	16bb\LL	.	.
.	.	.	16bb\	16ddd\	.	.
.	.	.	16aa\	16ccc#\	.	.
*	*	*	*custos:ff#	*	*	*
.	.	.	16gg\JJ)	16bb\JJ	.	.
!	!	!	!LO:LB:g=original	!	!	!
8D\L	.	4d/	4ff#\	16aa\LL	.	.
.	.	.	.	16ccc#\	.	.
8E\	.	.	.	16bb\	.	.
.	.	.	.	16aa\JJ	.	.
8F#\	.	8rg	8rdd	8ddd\L	.	.
8G\J	.	8b/	8dd\	8dd\J	.	.
=14	=14	=14	=14	=14	=14	=14
!LO:TX:t=P:problem=mixed beam	!	!	!	!	!	!
8A\L	.	4a/	4dd\	4ff#\	.	.
8G\	.	.	.	.	.	.
8A\	.	4a/	4cc#t\	4eeT\	.	.
8AA/J	.	.	.	.	.	.
4D/	.	4a/	4dd\	4dd\	.	.
4r	.	4rg	4r	4rdd	.	.
=15	=15	=15	=15	=15	=15	=15
!	!	!LO:TX:a:t=9.	!	!	!	!
8D\L	.	00r	2r	2r	4dd\	E-
8E\	.	.	.	.	.	.
8F#\	.	.	.	.	4dd\	-ja
8E\J	.	.	.	.	.	.
4D/	.	.	16rdd	16rdd	8dd\	gen-
.	.	.	16ff#\LL	16aa\LL	.	.
.	.	.	(16ff#\	(16aa\	8d/	-tes
*	*	*	*	*custos:gg	*	*
.	.	.	16ee\JJ)	16gg\JJ)	.	.
!	!	!	!	!LO:LB:g=original	!	!
4r	.	.	(16ee\LL	(16gg\LL	8r	.
.	.	.	16dd\)	16ff#\)	.	.
.	.	.	(16dd\	(16ff#\	8a\	ad
.	.	.	16cc#\JJ)	16ee\JJ)	.	.
=16	=16	=16	=16	=16	=16	=16
4D/	.	.	4dd\	4ff#\	(16dd\LL	gau-
.	.	.	.	.	16ee\)	.
.	.	.	.	.	(16ff#\	-di-
.	.	.	.	.	16ee\JJ)	.
8rGG	.	.	4r	4rdd	8dd\	-[[di]]a
8AA/	.	.	.	.	8cc#\	vo-
4D/	.	.	16rff	16rff	8dd\	-la-
.	.	.	16ff#\LL	16aa\LL	.	.
.	.	.	(16ff#\	(16aa\	8a\	-te
.	.	.	16ee\JJ)	16gg\JJ)	.	.
4r	.	.	(16ee\LL	(16gg\LL	4r	.
.	.	.	16dd\)	16ff#\)	.	.
.	.	.	(16dd\	(16ff#\	.	.
.	.	.	16cc#\JJ)	16ee\JJ)	.	.
!LO:LB:g=original	!	!	!	!	!	!
=17	=17	=17	=17	=17	=17	=17
4D/	.	.	16dd\LL	16ff#\LL	16dd\LL	fe-
.	.	.	16ee\	16gg\	16ee\	.
.	.	.	16ff#\	16aa\	16ff#\	.
.	.	.	16ee\JJ	16gg\JJ	16ee\JJ	.
8rGG	.	.	8dd\L	8ff#\L	8dd\	.
8AA/	.	.	8cc#\J	8ee\J	8cc#\	-sti-
4BB/	.	.	4dd\	8dd\L	8dd\L	-na-
.	.	.	.	8cc#\	8cc#\	.
8r	.	.	8rdd	8b\	8b\	.
8F#\	.	.	8dd\	8a\J	8a\J	.
=18	=18	=18	=18	=18	=18	=18
!LO:TX:t=P:problem=mixed beam	!	!	!	!	!	!
.	.	.	.	(<8qqa/	(8qqa/	.
8G\L	.	.	8dd\	2g/)	2g/)	.
8F#\	.	.	4dd\	.	.	.
8E\	.	.	.	.	.	.
8AA/J	.	.	8cc#\	.	.	.
!	!	!	!	!LO:TX:t=P:problem=mixed beam	!	!
4D/	.	.	(16dd\LL	16f#/LL	4f#/	-te
.	.	.	16ff#\	16aa\	.	.
.	.	.	16ee\	(16aa\	.	.
*	*	*	*custos:ee	*	*	*
.	.	.	16dd\JJ)	16gg\JJ)	.	.
!	!	!	!LO:LB:g=original	!	!	!
4r	.	.	(16ee\LL	(16gg\LL	4re	.
.	.	.	16dd\)	16ff#\)	.	.
.	.	.	(16dd\	(16ff#\	.	.
.	.	.	16cc#\JJ)	16ee\JJ)	.	.
=19	=19	=19	=19	=19	=19	=19
4D/	.	00r	4dd\	4ff#\	4ff#\	fe-
4D/	.	.	4ff#\	4aa\	4dd\	-sti-
4C#/	.	.	4ee\	4aa\	(16ee\LL	-na-
.	.	.	.	.	16cc#\	.
.	.	.	.	.	16b\	.
*	*	*	*	*	*custos:ee	*
.	.	.	.	.	16a\JJ)	.
!	!	!	!	!	!LO:LB:g=original	!
4rBB	.	.	4rdd	4rdd	(16ee\LL	.
.	.	.	.	.	16cc#\	.
.	.	.	.	.	16b\	.
.	.	.	.	.	16a\JJ)	.
=20	=20	=20	=20	=20	=20	=20
4BB/	.	.	4dd\	4gg#X\	(16dd\LL	.
.	.	.	.	.	16b\	.
.	.	.	.	.	16a\	.
.	.	.	.	.	16g\JJ)	.
4E\	.	.	4dd\	4gg#\	(16dd\LL	.
.	.	.	.	.	16b\	.
.	.	.	.	.	16a\	.
.	.	.	.	.	16g\JJ)	.
!LO:TX:t=P:problem=mixed beam	!	!	!	!	!	!
8AA/L	.	.	4cc#\	4aa\	8cc#\L	.
8A\	.	.	.	.	8ee\J	.
8B\	.	.	4r	4rdd	8dd\L	.
8E\J	.	.	.	.	16cc#\L	.
.	.	.	.	.	16b\JJ	.
=21	=21	=21	=21	=21	=21	=21
!	!	!	!LO:TX:a:t=3.	!LO:TX:a:t=3.	!	!
8rF	.	.	0r	0r	8cc#\L	.
8A\L	.	.	.	.	8ee\J	.
8B\	.	.	.	.	8dd\L	.
8E\J	.	.	.	.	16cc#\L	.
.	.	.	.	.	16b\JJ	.
4AA/	.	.	.	.	8cc#\L	.
.	.	.	.	.	8ee\J	.
4rBB	.	.	.	.	8dd\L	.
.	.	.	.	.	16cc#\L	.
.	.	.	.	.	16b\JJ	.
=22	=22	=22	=22	=22	=22	=22
8D\L	.	.	.	.	8ff#\	.
8A\J	.	.	.	.	8ee\	-te
4rF	.	.	.	.	8rb	.
.	.	.	.	.	8dd\	re-
8A\L	.	.	.	.	(8cc#\L	-dem-
8G#X\	.	.	.	.	16b\L	.
.	.	.	.	.	16cc#\JJ)	.
8F#\	.	.	.	.	8dd\	-pti
8D\J	.	.	.	.	8b\	mor-
=23	=23	=23	=23	=23	=23	=23
4E\	.	1r	1r	1r	(8a\L	-ta-
.	.	.	.	.	8e\J	.
4EE/	.	.	.	.	4b\)	.
!LO:TX:t=P:problem=mixed beam	!	!	!	!	!	!
8AA/L	.	.	.	.	4a\	-les
8B\	.	.	.	.	.	.
8A\	.	.	.	.	4r	.
8G\J	.	.	.	.	.	.
!	!	!	!	!LO:LB:g=original	!	!
=24	=24	=24	=24	=24	=24	=24
!	!	!	!	!	!LO:TX:a:t=5.	!
8F#\L	.	4a/	4a/	4dd\	00r	.
8E\	.	.	.	.	.	.
*	*	*custos:d	*	*	*	*
8F#\	.	4f#/	4a/	4dd\	.	.
*custos:G	*	*	*	*	*	*
8D\J	.	.	.	.	.	.
!LO:LB:g=original	!	!LO:LB:g=original	!	!	!	!
4G\	.	4d/	4a/	(16dd\LL	.	.
!	!	!	!	!LO:N:acc=-	!	!
.	.	.	.	16ccn\)	.	.
.	.	.	.	(16cc\	.	.
.	.	.	.	16b\JJ)	.	.
4rF	.	4re	4r	(16b/LL	.	.
.	.	.	.	16a/)	.	.
.	.	.	.	(16a/	.	.
.	.	.	.	16g/JJ)	.	.
=25	=25	=25	=25	=25	=25	=25
8G#X\L	.	4b/	4b/	4ee\	.	.
8F#\	.	.	.	.	.	.
8G#\	.	4g#X/	4b/	4ee\	.	.
8E\J	.	.	.	.	.	.
4A\	.	4e/	4cc#\	(16ee\LL	.	.
.	.	.	.	16dd\)	.	.
.	.	.	.	(16dd\	.	.
.	.	.	.	16cc#X\JJ)	.	.
4rA	.	4re	4r	16cc#\LL	.	.
.	.	.	.	16b\	.	.
.	.	.	.	16b\	.	.
.	.	.	.	16a\JJ	.	.
=26	=26	=26	=26	=26	=26	=26
8A#X\L	.	4cc#\	4cc#\	4ff#\	.	.
8G#X\	.	.	.	.	.	.
8A#\	.	4a#X/	4cc#\	4ff#\	.	.
8F#\J	.	.	.	.	.	.
4B\	.	4f#/	4dd\	(16ff#\LL	.	.
.	.	.	.	16ee\)	.	.
.	.	.	.	(16ee\	.	.
.	.	.	.	16dd\JJ)	.	.
4rF	.	4re	4r	(16dd\LL	.	.
.	.	.	.	16cc#\)	.	.
.	.	.	.	(16cc#\	.	.
.	.	.	.	16b\JJ)	.	.
=27	=27	=27	=27	=27	=27	=27
!	!	!	!LO:TX:t=P:problem=mixed beam	!	!	!
8E\L	.	8g/L	8b/L	(8gg\L	.	.
8r	.	8rg	8r	8bb\)	.	.
8G\J	.	8g/J	8bb\J	(8ee\	.	.
8rF	.	8rg	8rff	8dd\J)	.	.
8A\L	.	8e/L	8ee\L	(8cc#\L	.	.
8rA	.	8re	8rdd	8ee\)	.	.
8c#\J	.	8e/J	8dd\J	(8a\	.	.
8rA	.	8re	8rdd	8g\J)	.	.
=28	=28	=28	=28	=28	=28	=28
8D\L	.	4f#/	4a/	16f#/LL	1r	.
.	.	.	.	16a/	.	.
8E\	.	.	.	16g/	.	.
*	*	*	*	*custos:dd	*	*
.	.	.	.	16f#/JJ	.	.
!	!	!	!	!LO:LB:g=original	!	!
8F#\	.	8rg	8rg	8dd\L	.	.
8G\J	.	8b/	8g/	8b\J	.	.
!LO:TX:t=P:problem=mixed beam	!	!	!	!	!	!
8A\L	6 4	4a/	4f#/	4dd\	.	.
8G\	.	.	.	.	.	.
8A\	5 #	4a/	4e/	4cc#\	.	.
8AA/J	.	.	.	.	.	.
!	!	!	!LO:LB:g=original	!	!	!
=29	=29	=29	=29	=29	=29	=29
8D\L	.	4a/	4d/	4dd\	4dd\	E-
8E\	.	.	.	.	.	.
8F#\	.	4r	4re	4r	4dd\	-ja
8E\J	.	.	.	.	.	.
*	*	*	*	*	*custos:d	*
4D/	.	2rg	16rdd	16rdd	8dd\	gen-
.	.	.	16ff#\LL	16aa\LL	.	.
!	!	!	!	!	!LO:LB:g=original	!
.	.	.	(16ff#\	(16aa\	8d/	-tes
.	.	.	16ee\JJ)	16gg\JJ)	.	.
4r	.	.	(16ee\LL	(16gg\LL	8r	.
.	.	.	16dd\)	16ff#\)	.	.
.	.	.	(16dd\	(16ff#\	8a\	ad
.	.	.	16cc#\JJ)	16ee\JJ)	.	.
=30	=30	=30	=30	=30	=30	=30
!	!	!LO:TX:a:t=3.	!	!	!	!
4D/	.	0r	4dd\	4ff#\	(16dd\LL	gau-
.	.	.	.	.	16ee\JJ)	.
.	.	.	.	.	(16ff#\LL	-di-
.	.	.	.	.	16ee\JJ)	.
8rGG	.	.	4r	4rdd	8dd\	-a
8AA/	.	.	.	.	8cc#\	vo-
4D/	.	.	16rff	16rff	8dd\	-la-
.	.	.	16ff#\LL	16aa\LL	.	.
.	.	.	(16ff#\	(16aa\	8a\	-te
.	.	.	16ee\JJ)	16gg\JJ)	.	.
4r	.	.	(16ee\LL	(16gg\LL	4r	.
.	.	.	16dd\)	16ff#\)	.	.
.	.	.	(16dd\	(16ff#\	.	.
.	.	.	16cc#\JJ)	16ee\JJ)	.	.
=31	=31	=31	=31	=31	=31	=31
4D/	.	.	16dd\LL	16ff#\LL	16dd\LL	fe-
.	.	.	16ee\	16gg\	16ee\	.
.	.	.	16ff#\	16aa\	16ff#\	.
.	.	.	16ee\JJ	16gg\JJ	16ee\JJ	.
8rF	.	.	8dd\L	8ff#\L	8dd\	.
*custos:B	*	*	*	*	*	*
8A\	.	.	8cc#\J	8ee\J	8cc#\	-sti-
!LO:LB:g=original	!	!	!	!	!	!
4B\	-	.	4dd\	8dd\L	8dd\L	-na-
.	.	.	.	8cc#\	8cc#\	.
8rF	.	.	8rdd	8b\	8b\	.
8F#\	.	.	8dd\	8a\J	8a\J	.
=32	=32	=32	=32	=32	=32	=32
!LO:TX:t=P:problem=mixed beam	!	!	!	!	!	!
.	.	.	.	.	(8qqa/	.
8G\L	.	1r	8dd\	2g/	2g/)	.
8F#\	.	.	4dd\	.	.	.
8E\	.	.	.	.	.	.
8AA/J	.	.	8cc#\	.	.	.
4D/	.	.	4dd\	4f#/	4f#/	-te
4r	.	.	4r	4re	4re	.
=33	=33	=33	=33	=33	=33	=33
*	*	*	*clefF4	*clefF4	*	*
*	*	*	*k[f#c#]	*k[f#c#]	*	*
!LO:TX:a:t=8.	!	!	!LO:TX:t=P:problem=kolejność znaków FF# C# F#	!LO:TX:t=P:problem=kolejność znaków FF# C# F#	!	!
00r	.	8d/L	8D/L	8D/L	(16dd\LL	fe-
.	.	.	.	.	16ee\JJ)	.
!	!	!	!	!	!LO:N:acc=-	!
.	.	8d/	8D/	8D/	4ffn\	-sti-
.	.	8d/	8D/	8D/	.	.
*	*	*	*custos:AA	*custos:AA	*	*
.	.	8d/J	8D/J	8D/J	16ee\LL	-na-
.	.	.	.	.	16dd\JJ	.
!	!	!	!LO:LB:g=original	!LO:LB:g=original	!	!
.	.	8A/L	8AA/L	8AA/L	4ee\	.
.	.	8A/	8AA/	8AA/	.	.
.	.	8A/	8AA/	8AA/	8cc#X\L	.
.	.	8A/J	8BB/J	8BB/J	8dd\J	.
=34	=34	=34	=34	=34	=34	=34
.	.	8c#/L	8C#/L	8C#/L	(16ee\LL	.
.	.	.	.	.	16cc#\	.
.	.	8c#/	8C#/	8C#/	16b\	.
.	.	.	.	.	16a\JJ)	.
!	!	!	!	!	!LO:N:acc=-	!
.	.	.	.	.	8qqffn/	.
!	!	!	!	!	!LO:LB:g=original	!
.	.	8c#/	8C#/	8C#/	8gg\L	.
!	!	!	!	!	!LO:N:acc=-	!
.	.	8c#/J	8C#/J	8C#/J	16ffn\L	.
.	.	.	.	.	16ee\JJ	.
*	*	*	*clefG2	*clefG2	*	*
*	*	*	*	*k[f#c#]	*	*
!	!	!	!	!LO:TX:t=P:problem=mixed beam	!	!
!	!	!	!LO:TX:t=P:problem=kolejność znaków f# cc# ff#	!LO:TX:t=P:problem=kolejność znaków f# ff# cc#	!LO:N:acc=-	!
.	.	4d/	(16dd\LL	16d/LL	16ffn\LL	.
.	.	.	16ff#\)	16aa\	16ee\JJ	.
.	.	.	(16ff#\	16aa\	8dd\	-te
.	.	.	16ee\JJ)	16gg\JJ	.	.
.	.	4re	(16ee\LL	16gg\LL	4rb	.
!	!	!	!	!LO:N:acc=-	!	!
.	.	.	16dd\)	16ffn\	.	.
.	.	.	(16dd\	16ff\	.	.
.	.	.	16cc#\JJ)	16ee\JJ	.	.
!	!	!LO:LB:g=original	!	!	!	!
=35	=35	=35	=35	=35	=35	=35
!	!	!	!	!LO:N:acc=-	!LO:SIC:v:o=(4ff#\	!
.	.	8d/L	8dd\L	8ffn\L	(4ffn\	fe-
*	*	*	*clefF4	*clefF4	*	*
*	*	*	*k[f#c#]	*k[f#c#]	*	*
!	!	!	!LO:TX:t=P:problem=kolejność znaków FF# C# F#	!LO:TX:t=P:problem=kolejność znaków FF# C# F#	!	!
.	.	8d/	8D\	8D\	.	.
.	.	8d/	8D\	8D\	8dd\)	.
.	.	8d/J	8D\J	8D\J	8b\	-sti-
.	.	8e/L	8E\L	8E\L	16g#X\LL	-na-
.	.	.	.	.	16a\	.
.	.	8e/	8E\	8E\	16b\	.
.	.	.	.	.	16cc#\JJ	.
.	.	8e/	8E\	8E\	16dd\LL	.
.	.	.	.	.	16cc#\	.
.	.	8e/J	8E\J	8E\J	16dd\	.
.	.	.	.	.	16ee\JJ	.
=36	=36	=36	=36	=36	=36	=36
.	.	8a/L	8A\L	8A\L	8cc#\L	.
.	.	8a/	8A\	8A\	8ee\J	.
.	.	8a/	8A\	8A\	4g/	.
.	.	8a/J	8A\J	8A\J	.	.
.	.	8dd\L	8d\L	8d\L	16f#\LL	.
.	.	.	.	.	16g\	.
.	.	8dd\	8d\	8d\	16a\	.
.	.	.	.	.	16b\JJ	.
!	!	!	!	!	!LO:N:acc=-	!
.	.	8dd\	8d\	8d\	16ccn\LL	.
.	.	.	.	.	16b\	.
.	.	8dd\J	8d\J	8d\J	16cc\	.
.	.	.	.	.	16dd\JJ	.
=37	=37	=37	=37	=37	=37	=37
00r	.	8g/L	8G\L	8G\L	8b\L	.
.	.	8g/	8G\	8G\	8dd\J	.
!	!	!	!	!	!LO:N:acc=-	!
.	.	8g/	8G\	8G\	4fn/	.
*	*	*	*custos:cn	*	*	*
.	.	8g/J	8G\J	8G\J	.	.
!	!	!	!LO:LB:g=original	!	!	!
!	!	!LO:N:acc=-	!LO:N:acc=-	!LO:N:acc=-	!	!
.	.	8ccn\L	8cn\L	8cn\L	16e/LL	.
.	.	.	.	.	16f/	.
.	.	8cc\	8c\	8c\	16g/	.
.	.	.	.	.	16a/JJ	.
.	.	8cc\	8c\	8c\	16b\LL	.
.	.	.	.	.	16a\	.
.	.	8cc\J	8c\J	8c\J	16b\	.
!	!	!	!	!	!LO:N:acc=-	!
.	.	.	.	.	16ccn\JJ	.
!	!	!	!	!LO:LB:g=original	!	!
=38	=38	=38	=38	=38	=38	=38
!	!	!	!LO:SIC:v:o=8F#\L	!LO:N:acc=-	!	!
.	.	8f#/L	8Fn\L	8Fn\L	8a\L	.
!	!	!	!LO:SIC:v:o=8F#\	!	!LO:N:acc=-	!
.	.	8f#/	8Fn\	8F\	8ccn\	.
.	.	8d/	8D\	8D\	8b\	.
.	.	8d/J	8D\J	8D\J	8a\J	.
!	!	!	!	!	!LO:LB:g=original	!
.	.	8e/L	8E\L	8E\L	8.g#X\L	.
.	.	8e/	8E\	8E\	.	.
.	.	.	.	.	16a\Jk	.
.	.	8e/	8E\	8E\	8.a\L	.
.	.	8e/J	8E\J	8E\J	.	.
.	.	.	.	.	16b\Jk	.
=39	=39	=39	=39	=39	=39	=39
.	.	8e/L	8E\L	8E\L	8.b\L	.
.	.	8e/	8E\	8E\	.	.
!	!	!	!	!	!LO:N:acc=-	!
.	.	.	.	.	16ccn\Jk	.
.	.	8e/	8E\	8E\	8.cc\L	.
.	.	8e/J	8E\J	8E\J	.	.
.	.	.	.	.	16dd\Jk	.
.	.	8e/L	8E\L	8E\L	8.g#X\L	.
.	.	8e/	8E\	8E\	.	.
.	.	.	.	.	16a\Jk	.
.	.	8e/	8E\	8E\	8.a\L	.
.	.	8e/J	8E\J	8E\J	.	.
.	.	.	.	.	16b\Jk	.
=40	=40	=40	=40	=40	=40	=40
.	.	8e/L	8E\L	8E\L	8.b\L	.
.	.	8e/	8E\	8E\	.	.
!	!	!	!	!	!LO:N:acc=-	!
.	.	.	.	.	16ccn\Jk	.
.	.	8e/	8E\	8E\	8.cc\L	.
.	.	8f#/J	8F#\J	8F#X\J	.	.
.	.	.	.	.	16dd\Jk	.
.	.	4g#X;</	4G#X;\	4G#X;\	4dd\	-te
.	.	4rg	4rF	4rF	8rb	.
.	.	.	.	.	8b\	re-
=41	=41	=41	=41	=41	=41	=41
!	!	!LO:TX:a:t=7.	!LO:TX:a:t=1.	!LO:TX:a:t=1.	!LO:N:acc=-	!
8AA/L	.	00r	1r	1r	8ccn\L	-dem-
8BB/	.	.	.	.	8dd\J	.
8Cn/	.	.	.	.	8ee\	-pti
!	!	!	!	!	!LO:N:acc=-	!
8D/J	.	.	.	.	8ffn\	mor-
4E\	4	.	.	.	(4a\	-ta-
!	!	!	!	!	!LO:TX:t=P:problem=niejednoznaczny zapis ozdobnika [przyjęto mordent górny]	!
4EE/	#	.	.	.	4bm\)	.
=42	=42	=42	=42	=42	=42	=42
*	*	*	*clefG2	*clefG2	*	*
*	*	*	*k[f#c#]	*k[f#c#]	*	*
!	!	!	!LO:TX:t=P:problem=kolejność znaków ff# cc# f#	!LO:TX:t=P:problem=kolejność znaków f# ff# cc#	!	!
4AA/	.	.	2r	2r	4a\	-tes
4rBB	.	.	.	.	4r	.
2rGG	.	.	4a#X/	4cc#\	4cc#\	fe-
.	.	.	4a#/	4cc#\	4cc#\	-sti-
!	!	!	!	!	!LO:LB:g=original	!
=43	=43	=43	=43	=43	=43	=43
*	*	*	*	*	*2\right	*
!	!	!	!LO:SIC:v:o=(8a/L	!	!	!
8r	.	.	(8a#/L	(8cc#\L	2cc#\	-na-
!	!	!	!LO:SIC:v:o=8a/	!	!	!
8F#\L	.	.	8a#/	8cc#\	.	.
!	!	!	!LO:SIC:v:o=8a/	!	!	!
8F#\	.	.	8a#/	8cc#\	.	.
*	*	*	*custos:b	*	*	*
!	!	!	!LO:SIC:v:o=8a/J)	!	!	!
8F#\J	.	.	8a#/J)	8cc#\J)	.	.
!	!	!	!LO:LB:g=original	!	!	!
8r	.	.	8r	8rdd	2dd\	.
8F#\L	4	.	(8b/L	(8dd\L	.	.
8F#\	.	.	8b/	8dd\	.	.
8F#\J	.	.	8b/J)	8dd\J)	.	.
!	!	!	!	!LO:LB:g=original	!	!
=44	=44	=44	=44	=44	=44	=44
8rF	.	.	8r	8rdd	2ee\	.
8F#\L	7	.	(8cc#\L	(8ee\L	.	.
8F#\	.	.	8cc#\	8ee\	.	.
8F#\J	.	.	8cc#\J)	8ee\J)	.	.
8rF	.	.	8r	8rdd	2dd\	.
8F#\L	4	.	(8b/L	(8dd\L	.	.
8F#\	.	.	8b/	8dd\	.	.
8F#\J	.	.	8b/J)	8dd\J)	.	.
=45	=45	=45	=45	=45	=45	=45
!	!	!	!LO:TX:t=P:problem=brak pauzy ósemkowej	!	!	!
8rF	.	0r	8ryy	8r	2cc#\	.
8F#\L	6	.	(8a#X/L	(8cc#\L	.	.
8F#\	.	.	8a#/	8cc#\	.	.
8F#\J	.	.	8a#/J)	8cc#\J)	.	.
8rF	.	.	8r	8rdd	4.dd\	.
8F#\L	-	.	(8b/L	(8dd\L	.	.
8F#\	.	.	8b/	8dd\	.	.
8G#X\J	.	.	8b/J)	8ee\J)	8ee\	.
!LO:LB:g=original	!	!	!	!	!	!
=46	=46	=46	=46	=46	=46	=46
4A\	6	.	4cc#;\	4ee;\	4ee;\	-te,
4r	.	.	4r	4rdd	8rb	.
.	.	.	.	.	8cc#\	re-
8BB/L	.	.	2r	2r	(8dd\L	-dem-
8C#/	.	.	.	.	8ee\J)	.
8D/	.	.	.	.	(8ff#\L	-pti
8E/J	.	.	.	.	8gg\J)	.
=47	=47	=47	=47	=47	=47	=47
*	*	*custos:f#	*	*	*	*
!	!	!	!LO:TX:a:t=1.	!LO:TX:a:t=1.	!	!
4F#\	.	1r	1r	1r	4b\	mor-
4FF#/	.	.	.	.	4cc#\	-ta-
4BB/	.	.	.	.	4b\	-les
4rBB	.	.	.	.	4r	.
!	!	!LO:LB:g=original	!	!	!	!
=48	=48	=48	=48	=48	=48	=48
!	!	!	!	!	!LO:TX:a:t=2	!
8D\L	.	8f#/L	4dd\	4dd\	0r	.
8E\	.	8g/	.	.	.	.
8F#\	.	8a/	4dd\	4dd\	.	.
8E\J	.	8g/J	.	.	.	.
4D/	.	4f#/	(16dd\LL	(16dd\LL	.	.
.	.	.	16ff#\)	16aa\)	.	.
.	.	.	(16ff#\	(16aa\	.	.
.	.	.	16ee\JJ)	16gg\JJ)	.	.
4r	.	4re	(16ee\LL	(16gg\LL	.	.
.	.	.	16dd\)	16ff#\)	.	.
.	.	.	(16dd\	(16ff#\	.	.
.	.	.	16cc#\JJ)	16ee\JJ)	.	.
=49	=49	=49	=49	=49	=49	=49
8D\L	.	8f#/L	4dd\	4ff#\	.	.
8E\	.	8g/	.	.	.	.
8F#\	.	8a/	4dd\	4ff#\	.	.
8E\J	.	8g/J	.	.	.	.
4D/	.	4f#/	(16dd\LL	(16ff#\LL	.	.
.	.	.	16ff#\)	16aa\)	.	.
.	.	.	(16ff#\	(16aa\	.	.
.	.	.	16ee\JJ)	16gg\JJ)	.	.
4r	.	4re	(16ee\LL	(16gg\LL	.	.
.	.	.	16dd\)	16ff#\)	.	.
.	.	.	(16dd\	(16ff#\	.	.
.	.	.	16cc#\JJ)	16ee\JJ)	.	.
!	!	!	!LO:LB:g=original	!	!	!
=50	=50	=50	=50	=50	=50	=50
8D\L	.	4a/	4dd\	4ff#\	4dd\	e-
8E\	.	.	.	.	.	.
*	*	*	*	*custos:aa	*	*
8F#\	.	4rg	4r	4rdd	4dd\	-ja
8E\J	.	.	.	.	.	.
!	!	!	!	!LO:LB:g=original	!	!
4D/	.	2rg	16rff	16rdd	8dd\	gen-
.	.	.	16ff#\LL	16aa\LL	.	.
.	.	.	(16ff#\	(16aa\	8d/	-tes
.	.	.	16ee\JJ)	16gg\JJ)	.	.
4r	.	.	(16ee\LL	(16gg\LL	8r	.
.	.	.	16dd\)	16ff#\)	.	.
.	.	.	(16dd\	(16ff#\	8a\	ad
.	.	.	16cc#\JJ)	16ee\JJ)	.	.
=51	=51	=51	=51	=51	=51	=51
!	!	!LO:TX:a:t=3.	!	!	!	!
4D/	.	0r	4dd\	4ff#\	(16dd\LL	gau-
.	.	.	.	.	16ee\JJ)	.
.	.	.	.	.	(16ff#\LL	-di-
*	*	*	*	*	*custos:dd	*
.	.	.	.	.	16ee\JJ)	.
!	!	!	!	!	!LO:LB:g=original	!
8rGG	.	.	4r	4rdd	8dd\	-a
8AA/	.	.	.	.	8cc#\	vo-
4D/	.	.	16rff	16rff	8dd\	-la-
.	.	.	16ff#\LL	16aa\LL	.	.
.	.	.	(16ff#\	(16aa\	8a\	-te
.	.	.	16ee\JJ)	16gg\JJ)	.	.
4r	.	.	(16ee\LL	(16gg\LL	4r	.
.	.	.	16dd\)	16ff#\)	.	.
.	.	.	(16dd\	(16ff#\	.	.
.	.	.	16cc#\JJ)	16ee\JJ)	.	.
=52	=52	=52	=52	=52	=52	=52
4D/	.	.	4dd\	4ff#\	16dd\LL	fe-
.	.	.	.	.	16ee\	.
.	.	.	.	.	16ff#\	.
.	.	.	.	.	16ee\JJ	.
8rF	.	.	4r	4rdd	8dd\	.
8A\	.	.	.	.	8cc#\	-sti-
*	*	*	*	*custos:aa	*	*
4B\	.	.	2r	2rdd	8dd\L	-na-
.	.	.	.	.	8cc#\	.
8rF	.	.	.	.	8b\	.
8F#\	.	.	.	.	8a\J	.
!	!	!	!	!LO:PB:g=original	!	!
=53	=53	=53	=53	=53	=53	=53
!LO:TX:t=P:problem=mixed beam	!	!	!	!	!	!
.	.	.	.	.	(8qqa/	.
8G\L	.	1r	2r	2r	2g/)	.
8F#\	.	.	.	.	.	.
8E\	.	.	.	.	.	.
*custos:D	*	*	*	*	*	*
8AA/J	.	.	.	.	.	.
!LO:LB:g=original	!	!	!	!	!	!
4D/	.	.	16rdd	16rdd	4f#/	-te
!	!	!	!	!LO:N:vis=8	!	!
.	.	.	16ff#\LL	16aa\LL	.	.
.	.	.	(16ff#\	(16aa\	.	.
.	.	.	16ee\JJ)	16gg\JJ)	.	.
4r	.	.	(16ee\LL	(16gg\LL	4re	.
.	.	.	16dd\)	16ff#\)	.	.
.	.	.	(16dd\	(16ff#\	.	.
.	.	.	16cc#\JJ)	16ee\JJ)	.	.
=54	=54	=54	=54	=54	=54	=54
8F#\L	6	2rg	4dd\	4ff#\	4dd\	fe-
8E\	.	.	.	.	.	.
8F#\	.	.	4r	4rdd	4dd\	-sti-
8D\J	.	.	.	.	.	.
4G\	.	8rg	8b\L	(16ee\LL	4dd\	-na-
!	!	!	!	!LO:N:acc=-	!	!
.	.	.	.	16ccn\)	.	.
!	!	!	!LO:N:acc=-	!	!	!
.	.	8g/L	8ccn\	(16cc\	.	.
.	.	.	.	16b\JJ)	.	.
4rF	.	8a/	8dd\J	(16b/LL	8r	.
.	.	.	.	16a/)	.	.
*	*	*	*custos:cc#	*	*	*
!	!	!	!LO:TX:b:t=Verte.	!	!	!
.	.	8b/J	8rdd	(16a/	8g/	.
.	.	.	.	16g/JJ)	.	.
!	!	!	!LO:PB:g=original	!	!	!
=55	=55	=55	=55	=55	=55	=55
8G#X\L	6	2rg	2r	2r	4ee\	.
8F#\	.	.	.	.	.	.
8G#\	.	.	.	.	4ee\	.
8E\J	.	.	.	.	.	.
4A\	.	8rg	8cc#\L	(16ee\LL	4ee\	.
.	.	.	.	16dd\)	.	.
.	.	8a/L	8dd\	(16dd\	.	.
.	.	.	.	16cc#X\JJ)	.	.
4rF	.	8b/	8ee\J	(16cc#/LL	8r	.
.	.	.	.	16b/)	.	.
.	.	8cc#/J	8rdd	(16b/	8a\	.
.	.	.	.	16a/JJ)	.	.
=56	=56	=56	=56	=56	=56	=56
8A#X\L	6	2rg	2r	2r	4ff#\	.
8G#X\	.	.	.	.	.	.
8A#\	.	.	.	.	4ff#\	.
8F#\J	.	.	.	.	.	.
4B\	.	8r	8dd\L	(16ff#\LL	4ff#\	.
.	.	.	.	16ee\)	.	.
.	.	8b\L	8ee\	(16ee\	.	.
.	.	.	.	16dd\JJ)	.	.
4rA	.	8cc#\	8ff#\J	(16dd\LL	8rb	.
.	.	.	.	16cc#\)	.	.
.	.	8dd\J	8rff	(16cc#\	8b\	.
.	.	.	.	16b\JJ)	.	.
=57	=57	=57	=57	=57	=57	=57
4E\	.	4rg	4r	4rdd	8gg\L	.
.	.	.	.	.	8ee\	.
4G\	.	4b/	4b/	4gg\	8ee\	.
.	.	.	.	.	8dd\J	.
!	!	!	!	!	!LO:LB:g=original	!
4A\	6	4e/	4cc#;\	4gg;\	4cc#\	-te
8rA	.	4re	4r	4rff	8rb	.
8c#\	.	.	.	.	8ee\	re-
=58	=58	=58	=58	=58	=58	=58
!	!	!LO:TX:a:t=5.	!LO:TX:a:t=4.	!LO:TX:a:t=4.	!	!
4d\	.	00r	00r	00r	4ff#\	-dem-
4c#\	.	.	.	.	8ee\	-pti
.	.	.	.	.	8a\	mor-
4d\	.	.	.	.	(16ff#\LL	-ta-
.	.	.	.	.	16dd\	.
.	.	.	.	.	16cc#\	.
.	.	.	.	.	16dd\JJ)	.
4c#\	.	.	.	.	(16ee\LL	.
.	.	.	.	.	16cc#\	.
.	.	.	.	.	16b\	.
.	.	.	.	.	16cc#\JJ)	.
=59	=59	=59	=59	=59	=59	=59
4B\	.	.	.	.	(16dd\LL	.
.	.	.	.	.	16b\	.
.	.	.	.	.	16a\	.
.	.	.	.	.	16b\JJ)	.
4A\	.	.	.	.	(16cc#\LL	.
.	.	.	.	.	16a\	.
.	.	.	.	.	16g\	.
.	.	.	.	.	16a\JJ)	.
4G\	.	.	.	.	(16b\LL	.
.	.	.	.	.	16g\	.
.	.	.	.	.	16f#\	.
.	.	.	.	.	16g\JJ)	.
4F#\	.	.	.	.	(16a\LL	.
.	.	.	.	.	16f#\	.
.	.	.	.	.	16e\	.
.	.	.	.	.	16f#\JJ)	.
=60	=60	=60	=60	=60	=60	=60
4E\	.	.	.	.	16g\LL	.
.	.	.	.	.	16b\	.
.	.	.	.	.	16a\	.
.	.	.	.	.	16g\JJ	.
4G\	6	.	.	.	8ee\L	.
.	.	.	.	.	8dd\J	.
!	!	!	!	!	!LO:TUP:problem=klamra łukowa	!
4A\	.	.	.	.	12cc#\L	.
.	.	.	.	.	12b\	.
.	.	.	.	.	12a\J	.
8F#\L	.	.	.	.	8dd\L	.
8G\J	.	.	.	.	8b\J	.
!LO:LB:g=original	!	!	!	!	!	!
=61	=61	=61	=61	=61	=61	=61
4A\	.	.	.	.	4dd\	.
*	*	*	*	*	*custos:dd	*
4AA/	.	.	.	.	4ee\	.
!	!	!	!	!	!LO:LB:g=original	!
4D/	.	.	.	.	4dd\	-les
4r	.	.	.	.	8r	.
.	.	.	.	.	8a\	mor-
!	!	!	!	!LO:LB:g=original	!	!
=62	=62	=62	=62	=62	=62	=62
8r	.	1r	16rdd	16rff	2dd\	-ta-
.	.	.	16gg\LL	16aa\LL	.	.
8D\L	.	.	16ff#\	16gg\	.	.
.	.	.	16ee\JJ	16ff#\JJ	.	.
8F#\	.	.	16dd\LL	16ff#\LL	.	.
.	.	.	16ff#\	16aa\	.	.
8G\J	.	.	16ee\	16gg\	.	.
.	.	.	16dd\JJ	16ff#\JJ	.	.
4A\	.	.	4dd;\	4ff#;\	4dd\	.
4AA/	.	.	4rdd	4rdd	4ee\	.
=63	=63	=63	=63	=63	=63	=63
4D/	.	2rg	(16dd\LL	16ff#\LL	4dd;\	-les.
.	.	.	16ff#\	16aa\	.	.
.	.	.	16ee\	16gg\	.	.
.	.	.	16dd\JJ)	16ff#\JJ	.	.
4rBB	.	.	16dd\LL	16ff#\LL	4rb	.
.	.	.	16ff#\	16aa\	.	.
.	.	.	16ee\	16gg\	.	.
.	.	.	16dd\JJ	16ff#\JJ	.	.
8AA/L	.	8a/L	8A/L	8A/L	2r	.
8AA/	.	8a/	8A/	8A/	.	.
8AA/	.	8a/	8A/	8A/	.	.
8AA/J	.	8a/J	8A/J	8A/J	.	.
!	!	!LO:LB:g=original	!	!	!	!
=64	=64	=64	=64	=64	=64	=64
!	!	!	!	!	!LO:TX:a:t=8.	!
2rBB	.	2rg	(16cc#\LL	(16ee\LL	00r	.
.	.	.	16ee\	16gg\	.	.
.	.	.	16dd\	16ff#\	.	.
.	.	.	16cc#\JJ)	16ee\JJ)	.	.
.	.	.	(16cc#\LL	(16ee\LL	.	.
.	.	.	16ee\	16gg\	.	.
.	.	.	16dd\	16ff#\	.	.
*	*	*	*custos:A	*	*	*
.	.	.	16cc#\JJ)	16ee\JJ)	.	.
!	!	!	!LO:LB:g=original	!	!	!
8AA/L	.	8a/L	8A/L	8A/L	.	.
8AA/	.	8a/	8A/	8A/	.	.
8AA/	.	8a/	8A/	8A/	.	.
8AA/J	.	8a/J	8A/J	8A/J	.	.
=65	=65	=65	=65	=65	=65	=65
2r	.	2rg	(16dd\LL	(16ff#\LL	.	.
.	.	.	16ff#\	16aa\	.	.
.	.	.	16ee\	16gg\	.	.
.	.	.	16dd\JJ)	16ff#\JJ)	.	.
.	.	.	(16dd\LL	(16ff#\LL	.	.
.	.	.	16ff#\	16aa\	.	.
.	.	.	16ee\	16gg\	.	.
.	.	.	16dd\JJ)	16ff#\JJ)	.	.
8G\L	.	8g/L	8dd\L	8gg\L	.	.
8rF	.	8rg	8rdd	8bb\	.	.
8B\J	6	8g/J	8ddd\J	(8gg\	.	.
8rF	.	8rg	8rff	8ff#\J)	.	.
=66	=66	=66	=66	=66	=66	=66
8c#\L	9	8g/L	8ddd\L	8ee\L	.	.
8rA	.	8rg	8raa	8ccc#\	.	.
8A\J	6	8a/J	8ccc#\J	(8ff#\	.	.
*	*	*	*	*custos:dd	*	*
8rA	.	8rg	8raa	8ee\J)	.	.
!	!	!	!	!LO:LB:g=original	!	!
8B\L	9	8f#/L	8ccc#\L	8dd\L	.	.
8rA	.	8re	8raa	8bb\	.	.
8G\J	6	8g/J	8bb\J	(8ee\	.	.
8rF	.	8rg	8raa	8dd\J)	.	.
=67	=67	=67	=67	=67	=67	=67
8A\L	9	8e/L	8bb\L	8cc#\L	.	.
8rA	.	8re	8raa	8aa\	.	.
8F#\J	6	8f#/J	8aa\J	(8dd\	.	.
8rF	.	8re	8rff	8cc#\J)	.	.
8G\L	9	8d/L	8aa\L	8b\L	.	.
8rF	.	8re	8rff	8ff#\	.	.
8G\J	6	8b/J	8gg\J	(8ee\	.	.
8rF	.	8r	8rff	8dd\J)	.	.
=68	=68	=68	=68	=68	=68	=68
4A\	.	4e/	4gg\	4cc#\	00r	.
4rF	.	4re	4rdd	4r	.	.
4D/	.	4d/	(16ff#\LL	(16dd\LL	.	.
.	.	.	16aa\	16ff#\	.	.
.	.	.	16gg\	16ee\	.	.
.	.	.	16ff#\JJ)	16dd\JJ)	.	.
4r	.	4re	16ff#\LL	(16dd\LL	.	.
.	.	.	16aa\	16ff#\	.	.
.	.	.	16gg\	16ee\	.	.
.	.	.	16ff#\JJ	16dd\JJ)	.	.
!LO:LB:g=original	!	!	!	!	!	!
=69	=69	=69	=69	=69	=69	=69
4GG/	.	4d/	(16gg\LL	(16bb\LL	.	.
.	.	.	16bb\	16ddd\	.	.
.	.	.	16aa\	16ccc#\	.	.
*	*	*	*custos:gg	*	*	*
.	.	.	16gg\JJ)	16bb\JJ)	.	.
!	!	!	!LO:LB:g=original	!	!	!
4rGG	.	4re	(16gg\LL	(16bb\LL	.	.
.	.	.	16bb\	16ddd\	.	.
.	.	.	16aa\	16ccc#\	.	.
.	.	.	16gg\JJ)	16bb\JJ)	.	.
4D/	.	4d/	(16ff#\LL	(16dd\LL	.	.
.	.	.	16aa\	16ff#\	.	.
.	.	.	16gg\	16ee\	.	.
.	.	.	16ff#\JJ)	16dd\JJ)	.	.
4r	.	4re	(16ff#\LL	(16dd\LL	.	.
.	.	.	16aa\	16ff#\	.	.
.	.	.	16gg\	16ee\	.	.
.	.	.	16ff#\JJ)	16dd\JJ)	.	.
=70	=70	=70	=70	=70	=70	=70
4GG/	.	4d/	(16gg\LL	(16bb\LL	.	.
.	.	.	16bb\	16ddd\	.	.
.	.	.	16aa\	16ccc#\	.	.
.	.	.	16gg\JJ)	16bb\JJ)	.	.
4rGG	.	4re	(16gg\LL	(16bb\LL	.	.
.	.	.	16bb\	16ddd\	.	.
.	.	.	16aa\	16ccc#\	.	.
.	.	.	16gg\JJ)	16bb\JJ)	.	.
8D\L	.	4d/	4ff#\	(16aa\LL	.	.
.	.	.	.	16ccc#\	.	.
8E\	.	.	.	16bb\	.	.
*	*	*	*	*custos:ddd	*	*
.	.	.	.	16aa\JJ)	.	.
!	!	!	!	!LO:LB:g=original	!	!
8F#\	.	8rg	8rdd	8ddd\L	.	.
8G\J	.	8b/	8dd\	8dd\J	.	.
=71	=71	=71	=71	=71	=71	=71
!LO:TX:t=P:problem=mixed beam	!	!	!	!	!	!
8A\L	6 4	4a/	4dd\	4ff#\	.	.
8G\	.	.	.	.	.	.
8A\	5	4a/	4cc#t\	4ee\	.	.
8AA/J	#	.	.	.	.	.
!	!	!	!	!LO:TX:b:t=Finis.	!	!
4D/	.	4a;</	4dd;\	4dd;\	.	.
4r	.	4rg	4r	4rdd	.	.
!	!	!LO:LB:g=original	!	!	!	!
=72	=72	=72	=72	=72	=72	=72
*>B	*	*>B	*>B	*>B	*>B	*>B
!LO:TX:a:t=2.	!	!	!	!	!	!
0r	.	8B/L	8B/L	8dd\L	4b\	pro-
.	.	8B/	8B/	8dd\	.	.
.	.	8B/	8B/	8dd\	8rb	.
.	.	8B/J	8B/J	8dd\J	8b\	-pre-
.	.	8f#/L	8f#/L	4dd\	4b\	-ra-
.	.	8f#/	8f#/	.	.	.
.	.	8f#/	8f#/	8cc#\L	8a#X\	-te
.	.	8f#/J	8f#/J	8b\J	8b\	vos
=73	=73	=73	=73	=73	=73	=73
.	.	8f#/L	8f#/L	8a#X/L	16cc#\LL	tur-
.	.	.	.	.	16dd\J	.
.	.	8f#/	8f#/	8a#/	8ee\J	.
.	.	8f#/	8f#/	8a#/	8dd\	-bae
.	.	8f#/J	8f#/J	8a#/J	8cc#\	lae-
.	.	4B/	4B/	4f#/	16dd\LL	-tan-
.	.	.	.	.	16cc#\JJ	.
.	.	.	.	.	8b\	-tes,
.	.	4re	4re	4re	4r	.
=74	=74	=74	=74	=74	=74	=74
8D\L	.	4a/	(16dd\LL	(16ff#\LL	4dd\	pro-
.	.	.	16ff#\	16aa\	.	.
8E\	.	.	16ee\	16gg\	.	.
.	.	.	16dd\JJ)	16ff#\JJ)	.	.
8F#\	.	8rg	(16dd\LL	(16ff#\LL	8rb	.
.	.	.	16ff#\	16aa\	.	.
8G\J	.	8a/	16ee\	16gg\	8dd\	-pre-
*	*	*	*custos:dd	*	*	*
.	.	.	16dd\JJ)	16ff#\JJ)	.	.
!	!	!	!LO:LB:g=original	!	!	!
4A\	.	4a/	4dd\	4ff#\	4dd\	-ra-
*	*	*	*	*	*custos:dd	*
4AA/	.	4a/	8cc#\L	8ee\L	8cc#\	-te
!	!	!	!	!	!LO:PB:g=original	!
.	.	.	8dd\J	8ff#\J	8dd\	vos
=75	=75	=75	=75	=75	=75	=75
8AA/L	.	4a/	(16ee\LL	16gg\LL	4ee\	tur-
.	.	.	16gg\	16bb\	.	.
8BB/	.	.	16ff#\	16aa\	.	.
.	.	.	16ee\JJ)	16gg\JJ	.	.
8C#/	.	8rg	(16ee\LL	16gg\LL	8ee\	-bae
.	.	.	16gg\	16bb\	.	.
8AA/J	.	8a/	16ff#\	16aa\	8ee\	lae-
.	.	.	16ee\JJ)	16gg\JJ	.	.
8D/L	.	4a/	8ee\L	8gg\L	8ee\	-tan-
8DD/J	.	.	8dd\J	8ff#\J	8dd\	-tes
4rGG	.	4rg	4r	4rdd	8r	.
.	.	.	.	.	8a\	vos
=76	=76	=76	=76	=76	=76	=76
*	*	*	*	*custos:ff	*	*
2rBB	.	2re	2r	2rdd	4dd\	tur-
.	.	.	.	.	4d/	-bae
!	!	!	!	!LO:LB:g=original	!	!
4D/	.	4d/	(16dd\LL	(16ff#\LL	2re	.
.	.	.	16ff#\	16aa\	.	.
.	.	.	16ee\	16gg\	.	.
.	.	.	16dd\JJ)	16ff#\JJ)	.	.
4r	.	4re	(16dd\LL	(16ff#\LL	.	.
.	.	.	16ff#\	16aa\	.	.
.	.	.	16ee\	16gg\	.	.
.	.	.	16dd\JJ)	16ff#\JJ)	.	.
=77	=77	=77	=77	=77	=77	=77
!	!	!	!LO:TX:t=P:problem=mixed beam	!LO:TX:t=P:problem=mixed beam	!LO:TX:a:t=1.	!
8rGG	.	8re	16A/LL	16A/LL	1r	.
.	.	.	(16ee\	16gg\	.	.
8AA/	.	8A/	16dd\	16ff#\	.	.
.	.	.	16cc#\JJ)	16ee\JJ	.	.
4AA/	.	4A/	(16cc#\LL	16ee\LL	.	.
.	.	.	16ee\	16gg\	.	.
.	.	.	16dd\	16ff#\	.	.
.	.	.	16cc#\JJ)	16ee\JJ	.	.
!	!	!	!LO:TX:t=P:problem=mixed beam	!LO:TX:t=P:problem=mixed beam	!	!
8rGG	.	8rA	16A/LL	16A/LL	.	.
.	.	.	(16aa\	16ff#\	.	.
8AA/	.	8A/	16gg\	16ee\	.	.
.	.	.	16ff#\JJ)	16dd\JJ	.	.
4AA/	.	4A/	16ff#\LL	16dd\LL	.	.
.	.	.	16aa\	16ff#\	.	.
.	.	.	16gg\	16ee\	.	.
.	.	.	16ff#\JJ	16dd\JJ	.	.
=78	=78	=78	=78	=78	=78	=78
4AA/	.	4A/	4A/	4A/	2re	.
4rGG	.	4re	4re	4re	.	.
2rBB	.	8f#/L	8f#/L	8a#X/L	(8cc#\L	men
.	.	8f#/	8f#/	8a#/	16dd\L	.
.	.	.	.	.	16ee\JJ	.
.	.	8f#/	8f#/	8a#/	8ff#\	.
.	.	8f#/J	8f#/J	8a#/J	8ee\)	.
=79	=79	=79	=79	=79	=79	=79
!LO:TX:a:t=1.	!	!	!	!	!	!
!LO:TX:b:t=1.	!	!	!	!	!	!
1r	.	8f#/L	8f#/L	4b/	(4dd\	fla-
.	.	8f#/	8f#/	.	.	.
.	.	8f#/	8f#/	8a#X/L	8cc#\)	.
*	*	*	*custos:f	*	*	*
.	.	8f#/J	8f#/J	8a#/J	8cc#\	-tus
!	!	!	!LO:LB:g=original	!	!	!
.	.	8f#/L	8f#/L	8b\L	4dd\	i-
.	.	8f#/J	8f#/	8b\	.	.
!	!	!LO:LB:g=original	!	!	!	!
.	.	8f#/L	8f#/	8cc#\	8ee\	-ma
!LO:TX:b:t=Verte.	!	!	!	!	!	!
.	.	8f#/J	8f#/J	8b\J	8dd\	por-
!LO:PB:g=original	!	!	!	!	!	!
=80	=80	=80	=80	=80	=80	=80
2rBB	.	8f#/L	8f#/L	8b/L	8dd\	-ta-
.	.	8f#/J	8f#/J	8a#X/J	8cc#\	-ta
*	*	*	*	*	*custos:dd	*
.	.	4re	4rg	4rg	4rb	.
!	!	!	!	!	!LO:LB:g=original	!
8BB/L	.	2re	2rg	2rg	4dd\	pro-
8C#/	.	.	.	.	.	.
8D/	.	.	.	.	4f#/	-pe-
8BB/J	.	.	.	.	.	.
!	!	!	!	!LO:LB:g=original	!	!
=81	=81	=81	=81	=81	=81	=81
4E\	.	4b/	16rff	16rff	4g/	-ra-
.	.	.	(16gg\LL	(16bb\LL	.	.
.	.	.	16ff#\	16aa\	.	.
.	.	.	16ee\JJ)	16gg\JJ)	.	.
4G\	.	4b/	(16ee\LL	(16gg\LL	8rb	.
.	.	.	16gg\	16bb\	.	.
.	.	.	16ff#\	16aa\	8dd\	.
.	.	.	16ee\JJ)	16gg\JJ)	.	.
4A\	.	4a/	16rdd	16rff	4cc#\	.
.	.	.	(16ee\LL	(16gg\LL	.	.
.	.	.	16dd\	16ff#\	.	.
.	.	.	16cc#\JJ)	16ee\JJ)	.	.
4c#\	.	4a/	(16cc#\LL	(16ee\LL	8re	.
.	.	.	16ee\	16gg\	.	.
.	.	.	16dd\	16ff#\	8e/	.
.	.	.	16cc#\JJ)	16ee\JJ)	.	.
=82	=82	=82	=82	=82	=82	=82
4d\	.	4a/	16rdd	16rff	4f#/	.
.	.	.	(16ff#\LL	(16aa\LL	.	.
.	.	.	16ee\	16gg\	.	.
.	.	.	16dd\JJ)	16ff#\JJ)	.	.
4D/	.	4a/	(16dd\LL	(16ff#\LL	8rb	.
.	.	.	16ff#\	16aa\	.	.
.	.	.	16ee\	16gg\	8cc#\	.
.	.	.	16dd\JJ)	16ff#\JJ)	.	.
4G\	.	4g/	16r	16rff	4b\	.
.	.	.	(16dd\LL	(16ff#\LL	.	.
.	.	.	16cc#\	16ee\	.	.
.	.	.	16b\JJ)	16dd\JJ)	.	.
4B\	.	4g/	(16b\LL	(16dd\LL	8re	.
.	.	.	16dd\	16ff#\	.	.
.	.	.	16cc#\	16ee\	8d/	.
.	.	.	16b\JJ)	16dd\JJ)	.	.
=83	=83	=83	=83	=83	=83	=83
4c#\	.	4g/	16rdd	16rff	4e/	.
.	.	.	(16ee\LL	(16gg\LL	.	.
.	.	.	16dd\	16ff#\	.	.
.	.	.	16cc#\JJ)	16ee\JJ)	.	.
4E\	.	4g/	(16cc#\LL	(16ee\LL	8rb	.
.	.	.	16ee\)	16gg\	.	.
.	.	.	16dd\	16ff#\	8b\	.
*	*	*	*custos:cc#	*	*	*
.	.	.	16cc#\JJ	16ee\JJ)	.	.
!	!	!	!LO:LB:g=original	!	!	!
4F#\	.	4f#/	16r	16rdd	4a#X\	.
.	.	.	(16cc#/LL	(16ee\LL	.	.
.	.	.	16b/	16dd\	.	.
*	*	*	*	*custos:cc#	*	*
.	.	.	16a#X/JJ)	16cc#\JJ)	.	.
!	!	!	!	!LO:LB:g=original	!	!
4F#\	.	4f#/	(16a#/LL	(16cc#\LL	16rb	.
.	.	.	16cc#/	16ee\	16cc#\LL	.
.	.	.	16b/	16dd\	16dd\	.
.	.	.	16a#X/JJ)	16cc#\JJ)	16ee\JJ	.
=84	=84	=84	=84	=84	=84	=84
8BB/L	.	4f#/	4b/	16dd\LL	16dd\LL	.
.	.	.	.	16cc#\J	16cc#\JJ	.
8C#/	.	.	.	8b\J	8b\	-te
8D/	.	4re	4r	4r	4r	.
8C#/J	.	.	.	.	.	.
4BB/	.	2re	(16b\LL	(16dd\LL	4b\	pro-
.	.	.	16dd\	16ff#\	.	.
.	.	.	16cc#\	16ee\	.	.
.	.	.	16b\JJ)	16dd\JJ)	.	.
4rBB	.	.	(16b\LL	(16dd\LL	4dd\	-pe-
.	.	.	16dd\	16ff#\	.	.
.	.	.	16cc#\	16ee\	.	.
.	.	.	16b\JJ)	16dd\JJ)	.	.
=85	=85	=85	=85	=85	=85	=85
!	!	!LO:TX:a:t=7	!	!	!	!
8F#\L	#	00r	8f#/L	8f#/L	8cc#\L	-ra-
8F#\	.	.	8f#/	8f#/	8f#\	.
8F#\	.	.	8f#/	8f#/	8a#X\	.
8F#\J	.	.	8f#/J	8f#/J	8cc#\J	.
4F#\	7	.	16a#X/LL	(16cc#\LL	4ee\	.
.	.	.	16cc#/	16ee\	.	.
.	.	.	16b/	16dd\	.	.
.	.	.	16a#X/JJ	16cc#\JJ)	.	.
4rF	.	.	16a#/LL	(16cc#\LL	4cc#\	.
.	.	.	16cc#/	16ee\	.	.
.	.	.	16b/	16dd\	.	.
.	.	.	16a#X/JJ	16cc#\JJ)	.	.
!	!	!	!	!	!LO:LB:g=original	!
=86	=86	=86	=86	=86	=86	=86
8F#\L	.	.	8f#/L	8f#/L	8dd\L	.
8F#\	.	.	8f#/	8f#/	8f#\	.
8F#\	.	.	8f#/	8f#/	8b\	.
8F#\J	.	.	8f#/J	8f#/J	8dd\J	.
4F#\	.	.	(16dd\LL	(16b\LL	8ff#\	.
.	.	.	16ff#\	16dd\	.	.
.	.	.	16ee\	16cc#\	4dd\	.
.	.	.	16dd\JJ)	16b\JJ)	.	.
4r	.	.	(16dd\LL	(16b\LL	.	.
.	.	.	16ff#\	16dd\	.	.
.	.	.	16ee\	16cc#\	8b\	.
.	.	.	16dd\JJ)	16b\JJ)	.	.
=87	=87	=87	=87	=87	=87	=87
!	!	!	!	!LO:SIC:v:o=8cc#\L	!LO:N:acc=-	!
8E\L	6\	.	8g/L	8ccn\L	8ccn\L	.
*	*	*	*custos:f	*	*	*
!	!	!	!	!LO:SIC:v:o=8cc#\	!	!
8E\	.	.	8g/J	8ccn\	8cc\	.
!	!	!	!LO:LB:g=original	!	!	!
8F#\	#	.	8f#/L	8b\	8b\	.
*	*	*	*	*custos:b	*	*
8F#\J	.	.	8f#/J	8a#X\J	8a#X\J	.
!	!	!	!	!LO:LB:g=original	!	!
4G\	.	.	4d/	8b\L	8b\L	.
!	!	!	!	!	!LO:SIC:v:o=16cc\L	!
.	.	.	.	16cc#\L	16cc#\L	.
.	.	.	.	16dd\JJ	16dd\JJ	.
!	!	!	!	!	!LO:SIC:v:o=8cc\L	!
4E\	6	.	4gg\	8cc#\L	8cc#\L	.
.	.	.	.	8b\J	8b\J	.
=88	=88	=88	=88	=88	=88	=88
!	!	!	!	!LO:SIC:v:o=4a/	!	!
4F#\	6 #	.	4cc#\	4a#/	16a#X\LL	.
.	.	.	.	.	16b\	.
.	.	.	.	.	16cc#\	.
.	.	.	.	.	16b\JJ	.
4E\	.	.	4r	4rg	16cc#\LL	.
.	.	.	.	.	16a#X\	.
.	.	.	.	.	16g\	.
.	.	.	.	.	16f#\JJ	.
4D/	6	.	2r	2rg	16b\LL	.
.	.	.	.	.	16cc#\	.
.	.	.	.	.	16dd\	.
.	.	.	.	.	16ee\JJ	.
4r	.	.	.	.	16ff#\LL	.
.	.	.	.	.	16dd\	.
.	.	.	.	.	16cc#\	.
.	.	.	.	.	16b\JJ	.
!LO:LB:g=original	!	!	!	!	!	!
=89	=89	=89	=89	=89	=89	=89
!	!	!	!LO:TX:a:t=3.	!LO:TX:a:t=3.	!	!
4AA#X/	.	0r	0r	0r	16cc#\LL	.
.	.	.	.	.	16dd\	.
.	.	.	.	.	16ee\	.
.	.	.	.	.	16ff#\JJ	.
8r	.	.	.	.	16gg\LL	.
.	.	.	.	.	16ee\	.
8A#X\	.	.	.	.	16dd\	.
.	.	.	.	.	16cc#\JJ	.
8B\L	.	.	.	.	8dd\L	.
8c#\	.	.	.	.	16b\L	.
*	*	*	*	*	*custos:b	*
.	.	.	.	.	16a#X\JJ	.
!	!	!	!	!	!LO:LB:g=original	!
8d\	.	.	.	.	4b\	.
8B\J	.	.	.	.	.	.
=90	=90	=90	=90	=90	=90	=90
4E#X;\	.	.	.	.	4b;\	te
8r	.	.	.	.	8r	.
8E#\	.	.	.	.	8g/	-vos
8F#\L	.	.	.	.	(8a\L	tur-
!LO:TX:t=P:problem=♯ above	!	!	!	!	!	!
8G#X\	.	.	.	.	8b\J)	.
8A\	.	.	.	.	8cc#\	-bae
8B\J	.	.	.	.	8dd\	lae-
=91	=91	=91	=91	=91	=91	=91
4c#\	4	1r	1r	1r	(4a\	-tan-
4C#/	#	.	.	.	4g#X\)	.
4F#\	.	.	.	.	4f#/	-tes.
!LO:TX:b:t=Da Capo	!	!LO:TX:b:t=Da Capo&colon;	!LO:TX:b:t=Da Capo.	!LO:TX:b:t=Da Capo	!LO:TX:b:t=Da Capo&colon;	!
!	!	!	!	!	!LO:TX:b:t=91.	!
4r	.	.	.	.	4re	.
==	==	==	==	==	==	==
*-	*-	*-	*-	*-	*-	*-
!!!system-decoration: s1[(s2,s3,s4)]s5
!!!RDF**kern: < = below
!!!ENC: Andrzej Kubiczek
!!!END: 2020-11-29
!!!ENC: Marta Lawrence
!!!END: 2022-03-07
